X: 37668
T: Snowy Hills Of Caherea, The
R: jig
M: 6/8
K: Gmajor
BGG dcA|BGF GBd|c2e edc|dfa gdc|
BGG dcA BGF GBd|1 c2e edc de/f/g fdc:|
[2 cBG AFE D3 DcB||
A2c edc|B/c/dg fdB|c3 a2f|gfd cde|
A2c edc|B/c/dg fdB|1 ceg fdB|cBG AcB:|
[2 cBG AFE|D3 DcB||
A2D DED|c/B/GA FDB|c3 edc|B/c/dB cBG|
1 A2D D2D|c/B/GA FDB|c3 a2f|gfd cde:|
[2 A2D D2D|c/B/GA cBG|A2A cBG|AFE D3||

